app/src/main/assets/symbols/transport/bicycle_repair_station.svg

<?xml version="1.0" encoding="UTF-8" standalone="no"?>
<svg
   xmlns:dc="http://purl.org/dc/elements/1.1/"
   xmlns:cc="http://creativecommons.org/ns#"
   xmlns:rdf="http://www.w3.org/1999/02/22-rdf-syntax-ns#"
   xmlns:svg="http://www.w3.org/2000/svg"
   xmlns="http://www.w3.org/2000/svg"
   width="14"
   height="14"
   id="svg3800"
   version="1.1"
   viewBox="0 0 14 14">
  <defs
     id="defs3802" />
  <metadata
     id="metadata3805">
    <rdf:RDF>
      <cc:Work
         rdf:about="">
        <dc:format>image/svg+xml</dc:format>
        <dc:type
           rdf:resource="http://purl.org/dc/dcmitype/StillImage" />
        <dc:title></dc:title>
      </cc:Work>
    </rdf:RDF>
  </metadata>
  <g
     transform="translate(1.5520395,2.8104498)"
     id="g97">
    <g
       id="g105">
      <path
         id="rental-bicycle"
         transform="translate(-1.5520395,-2.8104498)"
         d="M 2.7441406 0 C 2.0338765 0.0003935 1.3740289 0.4117078 1 1 L 3.3691406 1 L 3.9921875 2 L 3.3691406 3 L 1.0019531 3 C 1.3756288 3.5877381 2.0345467 3.9989723 2.7441406 4 C 3.5023764 3.9999999 4.1562562 3.595766 4.5117188 3 L 9.1777344 3 C 9.533156 3.5959232 10.188909 4.0000003 10.947266 4 C 12.080957 4.0000002 13 3.1045696 13 2 C 13 0.89543042 12.080957 -2e-007 10.947266 0 C 10.188909 -2.6757065e-007 9.533156 0.40407683 9.1777344 1 L 4.5117188 1 C 4.1562561 0.40423404 3.5023764 6.6882009e-008 2.7441406 0 z M 10.322266 1 L 11.572266 1 L 12.195312 2 L 11.572266 3 L 10.322266 3 L 9.6992188 2 L 10.322266 1 z M 7.9824219 5.4511719 L 8.0136719 6.4492188 L 8.9785156 7.0117188 L 8.9785156 8.0097656 L 5.2382812 8.0097656 L 4.9902344 8.0097656 L 4.9902344 7.0117188 L 5.4882812 7.0117188 C 6.4856837 7.0117188 6.4856836 6.0136719 5.4882812 6.0136719 L 3.4941406 6.0136719 C 2.4967381 6.0136719 2.4967381 7.0117188 3.4941406 7.0117188 L 3.9921875 7.0117188 L 3.9921875 8.0097656 L 3.4316406 9.3828125 C 3.3901026 9.3805525 3.348685 9.3828125 3.3066406 9.3828125 C 2.0394441 9.3828125 1 10.422942 1 11.691406 C 1 12.959871 2.0394441 14 3.3066406 14 C 4.5738362 14 5.6132812 12.959871 5.6132812 11.691406 C 5.6132812 11.451775 5.5576715 11.222456 5.4882812 11.003906 L 5.9863281 11.003906 L 6.984375 11.003906 L 9.1347656 9.0078125 L 9.4160156 9.7265625 C 8.7780386 10.142801 8.3554687 10.88276 8.3554688 11.691406 C 8.3554688 12.959871 9.3949129 14 10.662109 14 C 11.929306 14 13 12.959871 13 11.691406 C 13 10.422942 11.929306 9.3828125 10.662109 9.3828125 C 10.620048 9.3828125 10.578652 9.3805525 10.537109 9.3828125 L 9.9765625 8.0097656 L 9.9765625 6.6367188 L 7.9824219 5.4511719 z M 4.8339844 9.0078125 L 7.9375 9.0078125 L 6.6347656 10.255859 L 5.0839844 10.255859 C 4.9305231 10.068437 4.755997 9.859178 4.5527344 9.7265625 L 4.8339844 9.0078125 z M 3.3066406 10.505859 C 3.9674208 10.505859 4.4902344 11.029965 4.4902344 11.691406 C 4.4902344 12.352848 3.9674208 12.876953 3.3066406 12.876953 C 2.6458595 12.876953 2.1230469 12.352848 2.1230469 11.691406 C 2.1230469 11.029965 2.6458595 10.505859 3.3066406 10.505859 z M 10.662109 10.505859 C 11.322889 10.505859 11.847656 11.029965 11.847656 11.691406 C 11.847656 12.352848 11.322889 12.876953 10.662109 12.876953 C 10.001328 12.876953 9.5097656 12.352848 9.5097656 11.691406 C 9.5097656 11.029965 10.001328 10.505859 10.662109 10.505859 z "
         style="stroke-width:0.99790192" />
    </g>
  </g>
</svg>

<?xml version="1.0" encoding="UTF-8"?>
<svg version="1.1" viewBox="0 0 14 14" xmlns="http://www.w3.org/2000/svg">
<g transform="translate(1.552 2.8104)">
<path transform="translate(-1.552 -2.8104)" d="m2.7441 0c-0.71026 3.935e-4 -1.3701 0.41171-1.7441 1h2.3691l0.62305 1-0.62305 1h-2.3672c0.37368 0.58774 1.0326 0.99897 1.7422 1 0.75824-1e-7 1.4121-0.40423 1.7676-1h4.666c0.35542 0.59592 1.0112 1 1.7695 1 1.1337 2e-7 2.0527-0.89543 2.0527-2 0-1.1046-0.91904-2-2.0527-2-0.75836-2.6757e-7 -1.4141 0.40408-1.7695 1h-4.666c-0.35546-0.59577-1.0093-1-1.7676-1zm7.5781 1h1.25l0.62305 1-0.62305 1h-1.25l-0.62305-1 0.62305-1zm-2.3398 4.4512 0.03125 0.99805 0.96484 0.5625v0.99805h-3.9882v-0.99805h0.49805c0.9974 0 0.9974-0.99805 0-0.99805h-1.9941c-0.9974 0-0.9974 0.99805 0 0.99805h0.49805v0.99805l-0.56055 1.373c-0.041538-0.00226-0.082956 0-0.125 0-1.2672 0-2.3066 1.0401-2.3066 2.3086s1.0394 2.3086 2.3066 2.3086 2.3066-1.0401 2.3066-2.3086c0-0.23963-0.05561-0.46895-0.125-0.6875h1.4961l2.1504-1.9961 0.28125 0.71875c-0.63798 0.41624-1.0605 1.1562-1.0605 1.9648 0 1.2685 1.0394 2.3086 2.3066 2.3086s2.3379-1.0401 2.3379-2.3086-1.0707-2.3086-2.3379-2.3086c-0.042061 0-0.083457-0.00226-0.125 0l-0.56055-1.373v-1.373l-1.9941-1.1855zm-3.1484 3.5566h3.1035l-1.3027 1.248h-1.5508c-0.15346-0.18742-0.32799-0.39668-0.53125-0.5293l0.28125-0.71875zm-1.5273 1.498c0.66078 0 1.1836 0.52411 1.1836 1.1855 0 0.66144-0.52281 1.1855-1.1836 1.1855-0.66078 0-1.1836-0.5241-1.1836-1.1855 0-0.66144 0.52281-1.1855 1.1836-1.1855zm7.3555 0c0.66078 0 1.1855 0.52411 1.1855 1.1855 0 0.66144-0.52477 1.1855-1.1855 1.1855-0.66078 0-1.1523-0.5241-1.1523-1.1855 0-0.66144 0.49156-1.1855 1.1523-1.1855z" stroke-width=".9979"/>
</g>
</svg>
